src/qt/bcz/res/img/img-empty-dark-staking-off.svg

<svg xmlns="http://www.w3.org/2000/svg" id="ic_dark_staking_off" width="100" height="100" viewBox="0 0 100 100"  xmlns:xlink="http://www.w3.org/1999/xlink"><rect id="svgEditorBackground" x="0" y="0" width="100" height="100" style="fill:none;stroke:none;"/>
    <defs>
        <style type="text/css">
            .cls-1{fill:#413d4a}.cls-2{fill:#a09ea5}.cls-3{fill:none}
        </style>
    </defs>
    <g id="Group_9043" data-name="Group 9043">
        <g id="Group_9038" data-name="Group 9038">
            <circle id="Ellipse_629" cx="14" cy="14" r="14" class="cls-1" data-name="Ellipse 629" transform="translate(36 56)" style="fill:#279880;"/>
            <path id="Rectangle_4698" d="M0,0h18v18h-18Z" class="cls-1" data-name="Rectangle 4698" transform="translate(41 28)" style="fill:#279880;"/>
        </g>
        <g id="Group_9042" data-name="Group 9042">
            
            <g id="Group_9041" data-name="Group 9041">
                <path id="Path_18994" d="M55,55.875v2.125a13,13,0,1,1,-10,0v-2.125a15,15,0,1,0,10,0Z" class="cls-2" data-name="Path 18994" style="fill:#C4C384;"/>
                <g id="Group_9040" data-name="Group 9040">
                    <path id="Rectangle_4701" d="M0,0h2v20h-2Z" class="cls-2" data-name="Rectangle 4701" transform="translate(49 52)" style="fill:#C4C384;"/>
                </g>
            </g>
        <path id="Rectangle_4699" d="M0,0h2v4h-2Z" class="cls-2" data-name="Rectangle 4699" transform="translate(81 58)" style="fill:#C4C384;"/><path id="Path_18992" d="M81,91h-62v-7h-2v9h66v-27h-2Z" class="cls-2" data-name="Path 18992" style="fill:#C4C384;"/><path id="Rectangle_4700" d="M0,0h2v4h-2Z" class="cls-2" data-name="Rectangle 4700" transform="translate(17 76)" style="fill:#C4C384;"/><path id="Path_18993" d="M80,27v2h7v16h-27v-16h16v-2h-9.694999999999993a10.992,10.992,0,1,0,-16.305000000000007,-13.556000000000001a10.992,10.992,0,1,0,-16.305,13.556000000000001h-22.695v20h6v25h2v-25h62v7h2v-7h6v-20ZM60,9a9,9,0,0,1,0,18h-9v-9a9.01,9.01,0,0,1,9,-9ZM31,18a9,9,0,0,1,18,0v9h-9a9.01,9.01,0,0,1,-9,-9ZM17,45h-4v-16h27v16ZM42,45v-16h16v16Z" class="cls-2" data-name="Path 18993" style="fill:#C4C384;"/></g>
    </g>
    <path id="Rectangle_4702" d="M0 0h100v100H0z" class="cls-3" data-name="Rectangle 4702"/>
</svg>

<svg xmlns="http://www.w3.org/2000/svg" id="ic_dark_staking_off" width="100" height="100" viewBox="0 0 100 100">
    <defs>
        <style type="text/css">
            .cls-1{fill:#413d4a}.cls-2{fill:#a09ea5}.cls-3{fill:none}
        </style>
    </defs>
    <g id="Group_9043" data-name="Group 9043">
        <g id="Group_9038" data-name="Group 9038">
            <circle id="Ellipse_629" cx="14" cy="14" r="14" class="cls-1" data-name="Ellipse 629" transform="translate(36 56)"/>
            <path id="Rectangle_4698" d="M0 0h18v18H0z" class="cls-1" data-name="Rectangle 4698" transform="translate(41 28)"/>
        </g>
        <g id="Group_9042" data-name="Group 9042">
            <g id="Group_9039" data-name="Group 9039">
                <path id="Rectangle_4699" d="M0 0h2v4H0z" class="cls-2" data-name="Rectangle 4699" transform="translate(81 58)"/>
                <path id="Path_18992" d="M81 91H19v-7h-2v9h66V66h-2z" class="cls-2" data-name="Path 18992"/>
                <path id="Rectangle_4700" d="M0 0h2v4H0z" class="cls-2" data-name="Rectangle 4700" transform="translate(17 76)"/>
                <path id="Path_18993" d="M80 27v2h7v16H60V29h16v-2h-9.695A10.992 10.992 0 1 0 50 13.444 10.992 10.992 0 1 0 33.695 27H11v20h6v25h2V47h62v7h2v-7h6V27zM60 9a9 9 0 0 1 0 18h-9v-9a9.01 9.01 0 0 1 9-9zm-29 9a9 9 0 0 1 18 0v9h-9a9.01 9.01 0 0 1-9-9zM17 45h-4V29h27v16zm25 0V29h16v16z" class="cls-2" data-name="Path 18993"/>
            </g>
            <g id="Group_9041" data-name="Group 9041">
                <path id="Path_18994" d="M55 55.875V58a13 13 0 1 1-10 0v-2.125a15 15 0 1 0 10 0z" class="cls-2" data-name="Path 18994"/>
                <g id="Group_9040" data-name="Group 9040">
                    <path id="Rectangle_4701" d="M0 0h2v20H0z" class="cls-2" data-name="Rectangle 4701" transform="translate(49 52)"/>
                </g>
            </g>
        </g>
    </g>
    <path id="Rectangle_4702" d="M0 0h100v100H0z" class="cls-3" data-name="Rectangle 4702"/>
</svg>
